X: 30292
T: NAHANT WALTZ
C:
%R: waltz
B: Elias Howe "The Musician's Companion" Part 3 1844 p.29 #2
S: http://imslp.org/wiki/The_Musician's_Companion_(Howe,_Elias)
S: https://archive.org/stream/firstthirdpartof03howe/#page/66/mode/1up
Z: 2016 John Chambers <jc:trillian.mit.edu>
N: There are no repeat symbols, but there are 1st/2nd endings; repeats added to match.
N: The double bar inside bar 25 should perhaps also have repeat signs.
M: 3/8
L: 1/16
K: D
% - - - - - - - - - - - - - - - - - - - - - - - - -
|:\
f4e2 | d4(df) | (eg)(ce)(df) | A6 |\
f4e2 | d4df | (fe)(ge)ce |1 d6 :|2 d4df ||
|:\
egcedf | egcedf | egcedf | A6 |\
f4e2 | d4(df) | (fe)(ge)(ce) |1 d4df :|2 d4 |: A2 |\
dcdefg | a2a2a2 | ^abgbd'b |
a2f2a2 |\
gecege | fdAdfd | fegece | d4 || fa |\
gecAGE | (D2f2)f2 |1 e2g2g2 | f2fdfa :|2 fegece | d4 |]
% - - - - - - - - - - - - - - - - - - - - - - - - -
